X: 6
T: The New Mown Meadows
R: reel
M: 4/4
L: 1/8
K: Edor
BEED E2FA|BdcA BAFA|BEED E2DE|A2 BA FEFA|
BEED E2FA|BdcA BAFA|d3B c3B|[1 AcBA FEFA:|[2 AcBA FAdf||
e2ce fecf|e2cA BAF f|e2ce fecB|AcBA FE df|
e2ce fecf|eAcA BAFA|d3B c3B|[1 A2BA FE df:|[2AcBA FEFA|]


Tune 2706	Setting 15942

